X: 268
T: Bendeni Gördükçe
C: İsmet Ağa
O: Turkey
F: http://compmusic.upf.edu/node/140
N: huseyni--sarki--agiraksak--bendeni_gordukce--ismet_aga
N: makam= huseyni
N: form= sarki
N: usul= agiraksak = 9/4
M: 9/4
L: 1/16
K: C _2/4B ^3/4f  
Q: 1/4=66
%%MIDI tuningsystem comma53
d2e4z2 A4 e2e3dc2 d2g2 ^fee4e4e2  | \
w:   | 
=f2e2 d2d2 e2d2 c2d3fe2 d2dc c_1/4Bc4z4d3cB2 c2d2 e2^f2 g2a3gg3fag fed4_1/4b3ag2  | 
w:   | 
a4 g^fef g4 fef2 efg2 ag=fe d2ef efef eded  | 
w:   | 
cde4z2 e4 e2e=f efga gfef efef eded cde8z2 g2^f2 g2e2 =f2d2 e2d2 c6_1/4B2 d3c  | 
w:   | 
_1/4B2c2 d2e4dc Bcd4cB A8 e3d c2d4cB ABc4BA B2AB c2BA A4 z2^fg agfg a3_1/4b  | 
w:   | 
aga2 z2a4a2 a2c'2 _1/4b2a2 ag^fe f2g2 f4 g3f  | \
w:   | 
e2^f2 e2f2 e2f2 g3_1/4b a2gf agfe d4 d4 z2ef  | 
w:   | 
d2e2 ^f2g2 a2_1/4b2 a3g g3f agfe d4 b3a g2a4gf efg4fe f2ef g2ag =fed2 efef efed edcd  | 
w:   | 
e4 z2e4e2 e=fef gagf efef efed e8  | 
w:   | 
z2g2 ^f2g2 e2=f2 d2e2 d2c6 _1/4B2d3cB2 c2d2  | \
w:   | 
e4 dc_1/4Bc d4 cBA8e3dc2 d4 cBAB  | 
w:   | 
c4 _1/4BAB2 ABc2 BAA8z4|
w:   | 


